X: 40784
T: Towards An Ecovillage
R: hornpipe
M: 4/4
K: Dmajor
F>E|D2D>E F>DF>A|B>Gd>B A2d>e|f>ef>g a>fg>e|f>ed>c B>AF>E|
D2D>E F>DF>A|B>Gd>B A2d>e|(3SfgfS (3SefgS a>gf>e|d>AB>c d2:|
fe|d2d>e f>df>a|g>eg>b a2b>c'|d'>c'b>a b>ag>f|g>fe>d e>gf>e|
d2d>e f>df>a|g>eg>b a>fd>e|(3SfgfS (3SefgS a>gf>e|d>AB>c d2:|

